X:115
T:Pucelette
R:Motet
C:Anonyme
O:XIIIe siècle
M:3/4
K:C
V:1
ddc2A2 | ccB2c2 | d4z2 | cBA2G2 | AGA2B2 | c4z2 | dd"(Bb)"B2G2 |
ddc2A2 | A6 | E2G2A2 | ccc2B2 | (A2{B}) A2G2 | A4z2 | c2B2c2 | ddc2A2 |
ccB2G2 | G4z2 | AGA2B2 | cBA2G2 | d4z2 | AAB2c2 | dBc2A2 | cBA2G2 | A4z2 |
ccB2G2 | ddc2A2 | cBA2G2 | AAG2(3FED | F4z2 | AGA2B2 || [M:4/4] cBA2G4 | HA8 |]
V:2
D2A4 | A2A4 | A2A4 | G4z2 | A2G4 | A2G4 | A2_B4 |
A2(A2G2) | (FED4) | E2C4 | D2E4 | D4z2 | d6 | c6 | A6 |
F6 | G6 | (FED4) | C4z2 | D2C4 | D2C4 | D2E4 | F6 | E4z2 |
G2G4 | A2B4 | c6 | d4z2 | D2C4 | D2E4 || [M:4/4] (G2F2) (F2E2) | HD8 |]
V:3
D6 | F6 | D6 | C4z2 | D6 | F6 | G6 |
D6 | D4z2 | E6 | C6 | D4z2 | D6 | F6 | D6 |
F6 | G6 | A6 | G6 | D6 | F6 | E6 | C6 |A,4z2 |
C6 | D6 | C6 | D4z2 | F6 | E6 || [M:4/4]  C8 | HD8 |]



%%header "$P0	 $IR 	$P1"
%%footer $D - Éditions Galouvielle - 2009 - À usage librement privé dans le cadre familial

